X:1
T:Romanze
T:Romanze 
T:Op. 13 Bardenklänge H 1 No. 2 
T:Johann Kaspar Mertz (tabbed by Classical Guitar Empire)
C:Johann Kaspar Mertz (tabbed by Classical Guitar Empire)
%%score { ( 1 3 5 ) | ( 2 4 6 ) }
L:1/8
Q:1/4=76
M:4/4
K:G
V:1 treble-8 nm="Guitar" snm="Guit."
V:3 treble-8 
V:5 treble-8 
V:2 tab stafflines=6 strings=E2,A2,D3,G3,B3,E4 nostems 
V:4 tab stafflines=6 strings=E2,A2,D3,G3,B3,E4 nostems 
V:6 tab stafflines=6 strings=E2,A2,D3,G3,B3,E4 nostems 
V:1
"^Andante"!f! !arpeggio!!fermata![E,B,EGBe]4!p!"^grace notes:""_Imitation del Arpa" !1!g/!1!b/!1!e'/b/(g'/e'/)b/e'/g/b/!0!e/g/"^loco"B/e/G/B/E/G/B,/E/G,/"^fin."B,/ E,2!<(! [E^Gde]>[E,Gde]!<)! | %1
!f! !arpeggio!!fermata![A,EAce]4"_grace notes:"!p! !3!a/!2!c'/!1!e'/c'/"^Arpa"(!4!a'/e'/)c'/e'/a/c'/"^loco"(!0!e/!1!a/)c/e/A/c/E/A/C/"_fin."E/ A,2!<(! [Ace]>[A,Ace]!<)! | %2
!f! !arpeggio![^A,EG^ce]2"^harm.""^12"!mf! g2"^12" e'2"^loco" !arpeggio![A,EGce]2 | %3
!f! !arpeggio![B,EGBe]2"^12""^harm." !>!g2"^12" !>!e'2"^loco" !arpeggio![B,EGBe]2 | %4
!mf! !fermata![B,FA^d]2 (3!>!=d'[egc'][=d^fb] (3!>!b[cea][Bdg] (3!>!g[Acf][GBe] | %5
 (3e[A^d][Gc] (3cB[^DA] (3:2:2[EG] !>!e2 (3:2:2z [Fce]2 | %6
 !fermata!z4 !>!b/B/4e/4g/4B/4e/4g/4 b/4e/4g/4b/4e'/4g/4b/4e'/4 | %7
 !>!!4!g'/(g'/4!1!e'/4)!1!b/4(g'/4e'/4)b/4 !1!g/4e'/4b/4g/4!3!e/4b/4g/4e/4"^loco" !0!B/4(g/4e/4)B/4G/4e/4B/4G/4 E/4B/4G/4E/4B,/4G/4E/4B,/4 | %8
 z2!f! !3!!1!!2!!4![Ac=fc']4!mf! !arpeggio![A,Acfc']2 | !>!!1!!4![e^c']4"^loco" [G^ce]3 [Gce] | %10
 [GBb]4"^loco" !>!=c3 B | [^DB]2 z2"_rit."[Q:1/4=66] z4[Q:1/4=56] || %12
[M:6/8]!p!"^Cantabile"[Q:3/8=60] z!p! [GB][Ac] [GB]"^il canto ben accentato"[GB][GB] | %13
 z [GB][Ac] [GB][GB][GB] | !4!b3- b!p!^a!4!b/!4!e'/ | e'3- e'"_loco"!p!g!4!=a/!4!b/ | b3- b!p!ag | %17
 !4!f3- f!p!!4!f/!4!b/b | b3- b!p!^ab/e'/ |"^har.""^12" !>!e'3- e'!p!"^III"!1!g!4!a/!4!b/ | %20
"_dol." !4!b/!mp!!4!f'/f'e' !fermata!d'/>^c'/(3(=c'/!0!e/)!<(!^e/!<)!!f!"^[gliss.]"!>(!{!fermata!!2!f(!fermata!g!fermata!f)!fermata!^e!fermata!f(!fermata!f!fermata!b)} !fermata![db]/>!mf![=ca]/!>)! | %21
!mp! !0!!2![Bg-]3 g"_rit."[Q:3/8=55]"^IV"!p!!<(!!4!b[Q:3/8=50]b!<)! | %22
[Q:3/8=45]!mf! b3-[Q:3/8=60] b!mf!^ab/e'/ | e'3- e'!mf!g=a/b/ | b3- b!mf!ag | f3- f!mf!f/b/b | %26
 b3- b!mf!^ab/e'/ |"^12""^har." !>!e'3- e'!mf!ga/b/ | %28
 =b/"_dol."f'/!mp!f'e' !fermata!d'/>^c'/(3(=c'/e/)^e/"^grace notes:"!>(! !2!f/(g/f/)^e/f/ !2!f/!2!b/!>)!!ppp! .b/.b/.b/ .b/>"^fin.".b/!pp! !>!!fermata![db]/>[ca]/ | %29
!p! g3- g!p!!<(!g!4!a/!4!b/!<)! |!mf! !4!b3- b!mf!bb | !>!!4!c'3!mf! bag | %32
 !>!!4!g>!3!fe/f/"^[gliss.]"{/!3!f} !3!d'/!1!c'/"_rit."[Q:3/8=55](3!4!b/!3!a/!0!e/"^loco"[Q:3/8=50]!>!!4!g/>!4!f/ | %33
[Q:3/8=45] e3[Q:3/8=60] !4![F^d]"^[gliss.]"{/!4!d}!4!c'"^har.""^12"b | %34
"^loco" !2!b3!mf! !>!!1!^a/b/!>!!3!c'/b/!>!g/e/ | =f3 c'f!0!e | e3 ^de^f | g/b/ba g^de | %38
 [Ac=f]c'[ce]"_cresc."!<(! [c^d]/"^[gliss.]"{/!4!a}!4!c'/!<)!!f![d^fc'][dfc'] | %39
"_rit."[Q:3/8=55]!ff! [eb]^a/[B=a]/[Q:3/8=50]!f![Bg] !>![=Acg]/f/[Q:3/8=45]!mf![GBe][B^d] | %40
"_cresc."!mp!!<(! [Be]/e/[Be]!>![ee']!<)!!f! !arpeggio![EAce]/e/!arpeggio![^A,EG^ce]!>![ee'] | %41
[Q:3/8=40] [EGBe]/!<(!e/!fermata![gb]/>!<)!"_dim."!ff!!>(![eg]/[Be]/[GB]/!>)!!mf![Q:3/8=35] [G=c]/!>(!B<!>!!4!g!3!f/!>)! | %42
[Q:3/8=60]"^[a tempo]"!p! e2!p! ^a/b/ !>!c'>!p!bg/e/ |"_doloroso"!mp! !>!=f2 e !>!^d z/ d/ z/ d/ | %44
 e2 ^a/b/ (=c'/4b/4)"_espressivo"!mf!(b/4^a/4)!f!(a/4=a/4)(a/4^g/4)"_dim."!>(!(g/4=g/4)(g/4^f/4)!>)! | %45
!mp! !>!=f2 e !>!^d!mf! z/!mp! d/ z/ d/ | %46
!p! [Ge]3!p! !3!!1!!0![Ace]!mf![Ace]!p![ce]/[Q:3/8=50][Ace]/[Q:3/8=40] | %47
 [GBe]3[Q:3/8=60]!p! [Ace]!f![Ace]!mp![ce]/[Q:3/8=50][Ace]/[Q:3/8=40] | %48
"^a tempo"[Q:3/8=60]!p!!<(! [GBe']/>^d'/!<)!!mp! [GBe']2!<(! [GBb]/>^a/!<)!!mf![GBb]>[GBg] | %49
 [GBe][GBe][GBe]!<(! [GBe]/[Ace]/[GBe]/[Ace]/[GBe]/[Ac^f]/!<)! | %50
!ff![Q:3/8=30] [GBg]2!mf! [Acf]/>!p!g/!pp! [Be]3- | !fermata![E,B,EGBe]6 |] %52
V:2
 !arpeggio!!fermata![!6!E,,!5!B,,!4!E,!3!G,!2!B,!1!E]4 !3!G/ !2!B/ !1!e/ !2!B/ (!1!g/ !1!e/) !2!B/ !1!e/ !3!G/ !2!B/ !1!E/ !1!G/ !2!B,/ !1!E/ !3!G,/ !2!B,/ !4!E,/ !3!G,/ !5!B,,/ !4!E,/ !6!G,,/ !5!B,,/ !6!E,,2!<(! [!4!E,!3!^G,!2!D!1!E]3/2 [!6!E,,!3!G,!2!D!1!E]/!<)! | %1
 !arpeggio!!fermata![!5!A,,!4!E,!3!A,!2!C!1!E]4 !3!A/ !2!c/ !1!e/ !2!c/ (!1!a/ !1!e/) !2!c/ !1!e/ !3!A/ !2!c/ (!1!E/ !1!A/) !3!C/ !2!E/ !4!A,/ !3!C/ !5!E,/ !4!A,/ !6!C,/ !5!E,/ !5!A,,2!<(! [!3!A,!2!C!1!E]3/2 [!5!A,,!3!A,!2!C!1!E]/!<)! | %2
 !arpeggio![!5!^A,,!4!E,!3!G,!2!^C!1!E]2 !3!G2 !1!e2 !arpeggio![!5!A,,!4!E,!3!G,!2!C!1!E]2 | %3
 !arpeggio![!5!B,,!4!E,!3!G,!2!B,!1!E]2 !>!!3!G2 !>!!1!e2 !arpeggio![!5!B,,!4!E,!3!G,!2!B,!1!E]2 | %4
 !fermata![!5!B,,!4!F,!3!A,!2!^D]2 (3!>!!1!=d [!3!E!2!G!1!c] [!3!=D!2!^F!1!B] (3!>!!1!B [!3!C!2!E!1!A] [!3!B,!2!D!1!G] (3!>!!1!G [!3!A,!2!C!1!F] [!3!G,!2!B,!1!E] | %5
 (3!1!E [!3!A,!2!^D] [!3!G,!2!C] (3!2!C !2!B, [!4!^D,!3!A,] (3:2:2[!4!E,!3!G,] !>!!1!E2 (3:2:2x [!4!F,!3!C!1!E]2 | %6
 !fermata!x4 !>!!1!B/ !4!B,/4 !3!E/4 !2!G/4 !4!B,/4 !3!E/4 !2!G/4 !1!B/4 !1!E/4 !3!G/4 !2!B/4 !1!e/4 !3!G/4 !2!B/4 !1!e/4 | %7
 !>!!1!g/ (!1!g/4 !1!e/4) !2!B/4 (!1!g/4 !1!e/4) !2!B/4 !3!G/4 !1!e/4 !2!B/4 !3!G/4 !4!E/4 !2!B/4 !3!G/4 !4!E/4 !2!B,/4 (!1!G/4 !1!E/4) !2!B,/4 !3!G,/4 !1!E/4 !2!B,/4 !3!G,/4 !4!E,/4 !2!B,/4 !3!G,/4 !4!E,/4 !5!B,,/4 !3!G,/4 !4!E,/4 !5!B,,/4 | %8
 x2 [!4!A,!3!C!2!=F!1!c]4 !arpeggio![!5!A,,!4!A,!3!C!2!F!1!c]2 | %9
 !>![!2!E!1!^c]4 [!4!G,!3!^C!2!E]3 [!4!G,!3!C!2!E] | [!3!G,!2!B,!1!B]4 !>!!2!=C3 !2!B, | %11
 [!4!^D,!2!B,]2 x2 x4 ||[M:6/8] x [!3!G,!2!B,] [!3!A,!2!C] [!3!G,!2!B,] [!3!G,!2!B,] [!3!G,!2!B,] | %13
 x [!3!G,!2!B,] [!3!A,!2!C] [!3!G,!2!B,] [!3!G,!2!B,] [!3!G,!2!B,] | %14
 !1!B3- !1!B !1!^A !1!B/ !1!e/ | !1!e3- !1!e !1!G !1!=A/ !1!B/ | !1!B3- !1!B !1!A !1!G | %17
 !1!F3- !1!F !1!F/ !1!B/ !1!B | !1!B3- !1!B !1!^A !1!B/ !1!e/ | !>!!1!e3- !1!e !1!G !1!A/ !1!B/ | %20
 !1!B/ !1!f/ !1!f !1!e !fermata!!1!d3/4 !1!^c/4 (3(!1!=c/ !1!E/)!<(! !1!^E/!<)!!>(!{!fermata!!1!F(!fermata!!1!G!fermata!!1!F)!fermata!!1!^E!fermata!!1!F(!fermata!!1!F!fermata!!1!B)} !fermata![!3!D!1!B]3/4 [!3!=C!1!A]/4!>)! | %21
 [!2!B,!1!G-]3 !1!G!<(! !1!B !1!B!<)! | !1!B3- !1!B !1!^A !1!B/ !1!e/ | %23
 !1!e3- !1!e !1!G !1!=A/ !1!B/ | !1!B3- !1!B !1!A !1!G | !1!F3- !1!F !1!F/ !1!B/ !1!B | %26
 !1!B3- !1!B !1!^A !1!B/ !1!e/ | !>!!1!e3- !1!e !1!G !1!A/ !1!B/ | %28
 !1!=B/ !1!f/ !1!f !1!e !fermata!!1!d3/4 !1!^c/4 (3(!1!=c/ !1!E/) !1!^E/!>(! !1!F/ (!1!G/ !1!F/) !1!^E/ !1!F/ !1!F/ !1!B/!>)! .!1!B/ .!1!B/ .!1!B/ .!1!B3/4 .!1!B/4 !>!!fermata![!3!D!1!B]3/4 [!3!C!1!A]/4 | %29
 !1!G3- !1!G!<(! !1!G !1!A/ !1!B/!<)! | !1!B3- !1!B !1!B !1!B | !>!!1!c3 !1!B !1!A !1!G | %32
 !>!!1!G3/2 !1!F/ !1!E/ !1!F/{/!1!F} !1!d/ !1!c/ (3!2!B/ !2!A/ !1!E/ !>!!2!G3/4 !2!F/4 | %33
 !1!E3 [!4!F,!2!^D]{/!2!D} !2!c !2!B | !1!B3 !>!!1!^A/ !1!B/ !>!!1!c/ !1!B/ !>!!2!G/ !1!E/ | %35
 !2!=F3 !1!c !2!F !1!E | !1!E3 !2!^D !1!E !1!^F | !1!G/ !1!B/ !1!B !1!A !1!G !2!^D !1!E | %38
 [!4!A,!3!C!2!=F] !1!c [!3!C!2!E]!<(! [!3!C!2!^D]/{/!1!A} !1!c/!<)! [!3!D!2!^F!1!c] [!3!D!2!F!1!c] | %39
 [!2!E!1!B] !1!^A/ [!2!B,!1!=A]/ [!2!B,!1!G] !>![!3!=A,!2!C!1!G]/ !1!F/ [!3!G,!2!B,!1!E] [!3!B,!2!^D] | %40
!<(! [!2!B,!1!E]/ !1!E/ [!2!B,!1!E] !>![!3!E!1!e]!<)! !arpeggio![!4!E,!3!A,!2!C!1!E]/ !1!E/ !arpeggio![!5!^A,,!4!E,!3!G,!2!^C!1!E] !>![!3!E!1!e] | %41
 [!4!E,!3!G,!2!B,!1!E]/!<(! !1!E/ !fermata![!2!G!1!B]3/4!<)!!>(! [!3!E!2!G]/4 [!2!B,!1!E]/ [!3!G,!2!B,]/!>)! [!3!G,!2!=C]/!>(! !2!B,/ !>!!1!G3/2 !1!F/!>)! | %42
 !1!E2 !1!^A/ !1!B/ !>!!1!c3/2 !1!B/ !1!G/ !1!E/ | !>!!1!=F2 !1!E !>!!2!^D x/ !2!D/ x/ !2!D/ | %44
 !1!E2 !1!^A/ !1!B/ (!1!=c/4 !1!B/4) (!1!B/4 !1!^A/4) (!1!A/4 !1!=A/4) (!1!A/4 !1!^G/4)!>(! (!1!G/4 !1!=G/4) (!1!G/4 !1!^F/4)!>)! | %45
 !>!!1!=F2 !1!E !>!!2!^D x/ !2!D/ x/ !2!D/ | %46
 [!3!G,!1!E]3 [!3!A,!2!C!1!E] [!3!A,!2!C!1!E] [!2!C!1!E]/ [!3!A,!2!C!1!E]/ | %47
 [!3!G,!2!B,!1!E]3 [!3!A,!2!C!1!E] [!3!A,!2!C!1!E] [!2!C!1!E]/ [!3!A,!2!C!1!E]/ | %48
!<(! [!3!G,!2!B,!1!e]3/4 !1!^d/4!<)! [!3!G,!2!B,!1!e]2!<(! [!3!G,!2!B,!1!B]3/4 !1!^A/4!<)! [!3!G,!2!B,!1!B]3/2 [!3!G,!2!B,!1!G]/ | %49
 [!3!G,!2!B,!1!E] [!3!G,!2!B,!1!E] [!3!G,!2!B,!1!E]!<(! [!3!G,!2!B,!1!E]/ [!3!A,!2!C!1!E]/ [!3!G,!2!B,!1!E]/ [!3!A,!2!C!1!E]/ [!3!G,!2!B,!1!E]/ [!3!A,!2!C!1!^F]/!<)! | %50
 [!3!G,!2!B,!1!G]2 [!3!A,!2!C!1!F]3/4 !1!G/4 [!2!B,!1!E]3- | %51
 !fermata![!6!E,,!5!B,,!4!E,!3!G,!2!B,!1!E]6 |] %52
V:3
 x19 | x18 | x8 | x8 | x8 | (3z FE (3z ^DB, (3:2:2C2 B, (3:2:2A,2 ^A, | %6
 !>!B,/"_quasi Arpa"E/4G/4B/4E/4G/4B/4 e/4G/4B/4e/4g/4B/4e/4g/4 z4 | x8 | A,2 z4 x2 | %9
 !>!!^!!2!^A,4 A,3 A, | !>!!^!B,4 [B,EG]4 | B,2 !>!C>B, B,A,G,F, ||[M:6/8] E,6 | E,6 | E,6 | E,6 | %16
 E,6 | !2!B,3 z z2 | E,6 | E,3 z !2!^CC | D3 D3 | !>!!^!!1!G,3- G, z z | E,6 | E,6 | E,6 | %25
 B,3 z z2 | E,6 | E,3 z ^CC | D3 D3- x6 | !>!!^!G,3- G, z z | !2!^D6 | E,6 | A,3 A,3 | %33
 B,2 ^A, B, z z | E,6 | A,6 | B,3 B, z z | [GB]2 [^DB] [EB][F,A][G,GB] | x3 A,3 | %39
 GF/^D/E/E,/ A,B,!>!B,/A,/ | =G,^G, z A, x2 | B, z z B, !1!!2!!0![B,AB]2 | E,3 E,3 | E,3 E,3 | %44
 E,3 E,3 | E,3 E,3 | E,3 !2!E/4!<(!E,/4A,/4!4!C/4!<)!E/4!>(!A,/4C/4E/4!>)!A/4"^rit."E/4C/4A,/4 | %47
 E,3 E/4!<(!E,/4A,/4C/4!<)!E/4!>(!A,/4C/4E/4!>)!A/4"^rit."E/4C/4A,/4 | %48
 E,/E,/E,/E,/E,/E,/ E,/E,/E,/E,/E,/E,/ | E,/E/B,/E/G,/B,/ E,/A,/E,/A,/E,/A,/ | %50
 !>!!^!E,2 !arpeggio!!>![E,A,^D] !arpeggio![E,B,EG][E,B,EG][E,B,EG] | x6 |] %52
V:4
 x19 | x18 | x8 | x8 | x8 | %5
 (3x !4!F, !4!E, (3x !4!^D, !5!B,, (3:2:2!5!C,2 !5!B,, (3:2:2!5!A,,2 !6!^A,, | %6
 !>!!5!B,,/ !4!E,/4 !3!G,/4 !2!B,/4 !4!E,/4 !3!G,/4 !2!B,/4 !1!E/4 !3!G,/4 !2!B,/4 !1!E/4 !2!G/4 !4!B,/4 !3!E/4 !2!G/4 x4 | %7
 x8 | !5!A,,2 x4 x2 | !>!!^!!6!^A,,4 !6!A,,3 !6!A,, | !>!!^!!6!B,,4 [!5!B,,!4!E,!3!G,]4 | %11
 !5!B,,2 !>!!5!C,3/2 !5!B,,/ !5!B,, !5!A,, !6!G,, !6!F,, ||[M:6/8] !6!E,,6 | !6!E,,6 | !6!E,,6 | %15
 !6!E,,6 | !6!E,,6 | !5!B,,3 x x2 | !6!E,,6 | !6!E,,3 x !5!^C, !5!C, | !4!D,3 !4!D,3 | %21
 !>!!^!!6!G,,3- !6!G,, x x | !6!E,,6 | !6!E,,6 | !6!E,,6 | !5!B,,3 x x2 | !6!E,,6 | %27
 !6!E,,3 x !5!^C, !5!C, | !4!D,3 !4!D,3- !4!D,6 | !>!!^!!6!G,,3- !6!G,, x x | !5!^D,6 | !6!E,,6 | %32
 !5!A,,3 !5!A,,3 | !5!B,,2 !5!^A,, !5!B,, x x | !6!E,,6 | !5!A,,6 | !5!B,,3 !5!B,, x x | %37
 [!3!G,!2!B,]2 [!5!^D,!2!B,] [!4!E,!2!B,] [!6!F,,!3!A,] [!6!G,,!3!G,!2!B,] | x3 !5!A,,3 | %39
 !3!G, !4!F,/ !5!^D,/ !4!E,/ !6!E,,/ !5!A,, !5!B,, !>!!5!B,,/ !5!A,,/ | %40
 !6!=G,, !6!^G,, x !5!A,, x2 | !5!B,, x x !5!B,, [!5!B,,!3!A,!2!B,]2 | !6!E,,3 !6!E,,3 | %43
 !6!E,,3 !6!E,,3 | !6!E,,3 !6!E,,3 | !6!E,,3 !6!E,,3 | %46
 !6!E,,3 !4!E,/4!<(! !6!E,,/4 !5!A,,/4 !5!C,/4!<)! !4!E,/4!>(! !5!A,,/4 !5!C,/4 !4!E,/4!>)! !3!A,/4 !4!E,/4 !5!C,/4 !5!A,,/4 | %47
 !6!E,,3 !4!E,/4!<(! !6!E,,/4 !5!A,,/4 !5!C,/4!<)! !4!E,/4!>(! !5!A,,/4 !5!C,/4 !4!E,/4!>)! !3!A,/4 !4!E,/4 !5!C,/4 !5!A,,/4 | %48
 !6!E,,/ !6!E,,/ !6!E,,/ !6!E,,/ !6!E,,/ !6!E,,/ !6!E,,/ !6!E,,/ !6!E,,/ !6!E,,/ !6!E,,/ !6!E,,/ | %49
 !6!E,,/ !4!E,/ !5!B,,/ !4!E,/ !6!G,,/ !5!B,,/ !6!E,,/ !5!A,,/ !6!E,,/ !5!A,,/ !6!E,,/ !5!A,,/ | %50
 !>!!^!!6!E,,2 !arpeggio!!>![!6!E,,!5!A,,!4!^D,] !arpeggio![!6!E,,!5!B,,!4!E,!3!G,] [!6!E,,!5!B,,!4!E,!3!G,] [!6!E,,!5!B,,!4!E,!3!G,] | %51
 x6 |] %52
V:5
 x19 | x18 | x8 | x8 | x8 | x8 | x8 | x8 | x8 | !0!G4 x4 | x8 | x8 ||[M:6/8] x6 | x6 | %14
 z!pp! [GB][Ac] [GB][GB][GB] | z!pp! [GB][=Ac] [GB][GB][GB] | z!pp! [GB][Ac] [GB][GB][GB] | %17
 z!pp! !3!!0![AB]!1![Ac] [AB][AB]!3![AB] | z!pp! [GB][Ac] [GB][GB][GB] | %19
 z!pp!"_loco" [EG][F=A] [GB]!3!!1![G_B][GB] | [GB][GB][GB] [df]2 x | %21
 z!pp! !3!!4![^CB]!0![DB] !0![GB][F^d][Bd] | z!pp!"_a tempo" [GB][Ac] [GB][GB][GB] | %23
 z!pp! [GB][=Ac] [GB][GB][GB] | z!pp! [GB][Ac] [GB][GB][GB] | z!pp! [AB][Ac] [AB][AB][AB] | %26
 z!pp! [GB][Ac] [GB][GB][GB] | z!pp!"_loco" [EG][F=A] [GB][G_B][GB] | [G=B][GB][GB] [df]2 x x2 x4 | %29
 !0!B!pp!!3![^CB][DB] [GB][GB][GB] | z!pp! !3!!0![AB]!1![Ac] [AB][AB][AB] | %31
 z!pp! [GB][Ac] [GB][GB][GB] | z [Ac][Ac] z !2!!1![ce]!3!!1![Ac] | z"^[a tempo]" [GB]G x x2 | %34
 z!pp! [GB][GB] [GB][GB][GB] | z [Ac][Ac] [Ac][Ac][Ac] | z [GB][GB] B[^A^c][=A=c] | x6 | %38
 A,2 A ^FAA | x6 | x6 | x6 | z/!pp! [GB]/[GB]/[GB]/[GB]/[GB]/ z/!pp! [GB]/[GB]/[GB]/[GB]/[GB]/ | %43
 z/ [=A=c]/[Ac]/[Ac]/[Ac]/[Ac]/ A/A,/C/A/B,/A/ | %44
 z/ [GB]/[GB]/[GB]/[GB]/[GB]/ z/ [GB]/[GB]/[GB]/[GB]/[GB]/ | %45
 z/ [=A=c]/[Ac]/[Ac]/[Ac]/[Ac]/ A/!<(!A,/C/!<)!A/B,/A/ | %46
x/!pp!"^misterioso"(^D/4E/4)E/(!>!D/4E/4)E/(!>!D/4E/4) x x2 | %47
x/!pp!"^a tempo"(!>!^D/4E/4)E/(!>!D/4E/4)E/(!>!=F/4E/4) x x2 | x6 | x6 | x6 | x6 |] %52
V:6
 x19 | x18 | x8 | x8 | x8 | x8 | x8 | x8 | x8 | !3!G,4 x4 | x8 | x8 ||[M:6/8] x6 | x6 | %14
 x [!3!G,!2!B,] [!4!A,!3!C] [!3!G,!2!B,] [!3!G,!2!B,] [!3!G,!2!B,] | %15
 x [!3!G,!2!B,] [!5!=A,!4!C] [!3!G,!2!B,] [!3!G,!2!B,] [!3!G,!2!B,] | %16
 x [!3!G,!2!B,] [!4!A,!3!C] [!3!G,!2!B,] [!3!G,!2!B,] [!3!G,!2!B,] | %17
 x [!3!A,!2!B,] [!3!A,!2!C] [!3!A,!2!B,] [!3!A,!2!B,] [!4!A,!2!B,] | %18
 x [!3!G,!2!B,] [!4!A,!3!C] [!3!G,!2!B,] [!3!G,!2!B,] [!3!G,!2!B,] | %19
 x [!4!E,!3!G,] [!4!F,!3!=A,] [!3!G,!2!B,] [!4!G,!3!_B,] [!4!G,!3!B,] | %20
 [!3!G,!2!B,] [!3!G,!2!B,] [!3!G,!2!B,] [!3!D!2!F]2 x | %21
 x [!5!^C,!3!B,] [!4!D,!3!B,] [!3!G,!2!B,] [!4!F,!2!^D] [!3!B,!2!D] | %22
 x [!3!G,!2!B,] [!4!A,!3!C] [!3!G,!2!B,] [!3!G,!2!B,] [!3!G,!2!B,] | %23
 x [!3!G,!2!B,] [!5!=A,!4!C] [!3!G,!2!B,] [!3!G,!2!B,] [!3!G,!2!B,] | %24
 x [!3!G,!2!B,] [!4!A,!3!C] [!3!G,!2!B,] [!3!G,!2!B,] [!3!G,!2!B,] | %25
 x [!3!A,!2!B,] [!3!A,!2!C] [!3!A,!2!B,] [!3!A,!2!B,] [!4!A,!2!B,] | %26
 x [!3!G,!2!B,] [!4!A,!3!C] [!3!G,!2!B,] [!3!G,!2!B,] [!3!G,!2!B,] | %27
 x [!4!E,!3!G,] [!4!F,!3!=A,] [!3!G,!2!B,] [!4!G,!3!_B,] [!4!G,!3!B,] | %28
 [!3!G,!2!=B,] [!3!G,!2!B,] [!3!G,!2!B,] [!3!D!2!F]2 x x2 x4 | %29
 !2!B, [!5!^C,!2!B,] [!4!D,!2!B,] [!3!G,!2!B,] [!3!G,!2!^B,] [!3!G,!2!=B,] | %30
 x [!4!A,!2!B,] [!4!A,!3!C] [!4!A,!2!B,] [!4!A,!2!B,] [!4!A,!2!B,] | %31
 x [!3!G,!2!B,] [!4!A,!3!C] [!3!G,!2!B,] [!3!G,!2!B,] [!3!G,!2!B,] | %32
 x [!3!A,!2!C] [!3!A,!2!C] x [!4!C!3!E] [!4!A,!3!C] | x [!3!G,!2!B,] !3!G, x x2 | %34
 x [!3!G,!2!B,] [!3!G,!2!B,] [!3!G,!2!B,] [!3!G,!2!B,] [!5!G,!4!B,] | %35
 x [!4!A,!3!C] [!4!A,!3!C] [!4!A,!3!C] [!4!A,!3!C] [!4!A,!3!C] | %36
 x [!3!G,!2!B,] [!3!G,!2!B,] !3!B, [!3!^A,!2!^C] [!3!=A,!2!=C] | x6 | %38
 !5!A,,2 !4!A, !4!^F, !4!A, !4!A, | x6 | x6 | x6 | %42
 x/ [!3!G,!2!B,]/ [!3!G,!2!B,]/ [!3!G,!2!B,]/ [!3!G,!2!B,]/ [!3!G,!2!B,]/ x/ [!3!G,!2!B,]/ [!3!G,!2!B,]/ [!3!G,!2!B,]/ [!3!G,!2!B,]/ [!3!G,!2!B,]/ | %43
 x/ [!3!=A,!2!=C]/ [!3!A,!2!C]/ [!3!A,!2!C]/ [!3!A,!2!C]/ [!3!A,!2!C]/ !3!A,/ !5!A,,/ !5!C,/ !3!A,/ !5!B,,/ !3!A,/ | %44
 x/ [!3!G,!2!B,]/ [!3!G,!2!B,]/ [!3!G,!2!B,]/ [!3!G,!2!B,]/ [!3!G,!2!B,]/ x/ [!3!G,!2!B,]/ [!3!G,!2!B,]/ [!3!G,!2!B,]/ [!3!G,!2!B,]/ [!3!G,!2!B,]/ | %45
 x/ [!3!=A,!2!=C]/ [!3!A,!2!C]/ [!3!A,!2!C]/ [!3!A,!2!C]/ [!3!A,!2!C]/ !3!A,/!<(! !5!A,,/ !5!C,/!<)! !3!A,/ !5!B,,/ !3!A,/ | %46
 !4!x/ (!4!^D,/4 !4!E,/4) !4!E,/ (!>!!4!D,/4 !4!E,/4) !4!E,/ (!>!!4!D,/4 !4!E,/4) x x2 | %47
 !4!x/ (!>!!4!^D,/4 !4!E,/4) !4!E,/ (!>!!4!D,/4 !4!E,/4) !4!E,/ (!>!!4!=F,/4 !4!E,/4) x x2 | x6 | %49
 x6 | x6 | x6 |] %52

